X: 1
T: Korobeiniki
N: Transposed
R: polka
M: 2/4
Q: 1/4=140
L: 1/8
K: Dmin
[|:A2 EF|G2 FE|D2 DF|A2 GF|E3 F|G2 A2|F2 D2|D2 z2||
G2- GB|d2 cB|A3 F|A2 GF|E2 EF|G2 A2|F2 D2|D2 z2:|
|:A4|F4|G4|E4|F4|D4|^C4-|^C2 z2|
A4|F4|G4|E4|F2 A2|d2d2|^c2-|^c2 z2:|]


